src/assets/yen.svg

<svg fill="none" height="150" viewBox="0 0 150 150" width="150" xmlns="http://www.w3.org/2000/svg"><path d="m128.046 21.9539c-14.188-14.16027-33.0131-21.9539-53.046-21.9539s-38.8584 7.79363-53.0461 21.9539c-14.16027 14.1877-21.9539 33.0132-21.9539 53.0461s7.79363 38.858 21.9539 53.046c14.1603 14.16 33.0132 21.954 53.0461 21.954s38.858-7.794 53.046-21.954c14.16-14.16 21.954-33.0131 21.954-53.046s-7.794-38.8584-21.954-53.0461z" fill="#ffc700"/><g fill="#000"><path d="m26.0154 75.0001h-13.7212c0-31.7783 23.7651-58.562 55.2689-62.3216l1.6191 13.6114c-24.5883 2.9363-43.1668 23.8748-43.1668 48.7102z"/><path d="m139.983 75.494h-18.112l-.054-2.1405c-.028-1.1526-.11-2.3052-.22-3.4029-2.168-21.4325-19.237-38.9407-40.5872-41.6849l-1.9759-.2196v-18.16683l2.415.24703c.6586.0548 1.2623.1372 1.8386.2195 14.4347 1.8386 27.9915 8.6169 38.1995 19.0724 10.209 10.483 16.658 24.2316 18.14 38.7487.164 1.6739.274 3.3754.302 5.1042zm-13.858-4.3908h9.358c-.055-.8507-.11-1.674-.192-2.5247-1.372-13.5291-7.382-26.3721-16.905-36.1142-9.385-9.5773-21.7615-15.8342-34.9613-17.7003v9.4402c22.4753 3.7321 40.2303 22.5027 42.5353 45.3073.083.5489.11 1.0703.165 1.5917z"/><path d="m79.0339 139.654v-18.167l1.921-.247c18.8804-2.387 34.7141-16.355 39.4071-34.7417l.412-1.6465h18.441l-.521 2.6345c-2.745 13.8307-9.742 26.1247-20.253 35.5927-10.346 9.33-23.1337 14.956-36.9921 16.356zm4.3908-14.352v9.44c11.9923-1.674 23.0243-6.806 32.0803-14.956 9.138-8.233 15.422-18.743 18.304-30.5709h-9.66c-2.717 9.2756-7.958 17.5359-15.23 23.9569-7.218 6.394-15.9992 10.566-25.4943 12.13z"/><path d="m69.7035 139.572-2.4423-.302c-14.5719-1.729-27.7717-8.15-38.1998-18.578-9.1658-9.166-15.3129-20.664-17.7827-33.2605l-.5214-2.607h18.4413l.4116 1.6465c4.6927 18.167 19.7037 31.751 38.2273 34.605l1.866.274zm-53.54-50.3568c2.607 10.7026 8.1229 20.4718 16.0263 28.3758 9.1383 9.138 20.5544 14.983 33.1504 16.986v-9.495c-9.2206-1.756-17.7552-6.037-24.753-12.404-7.0253-6.366-12.0747-14.4617-14.7366-23.4628z"/><path d="m90.258 54.3359c-.1921-.3293-.4665-.494-.8233-.494h-5.7354c-.4117 0-.7135.1921-.8782.5763l-5.7354 12.6235c-.1372.3293-.4117.9605-.8233 1.8386-.4116.8782-.7135 1.5643-.9056 2.0308-.7409-1.7289-1.2898-2.9912-1.674-3.7596l-6.4489-12.7607c-.1921-.3568-.494-.5489-.8782-.5489h-5.8178c-.3567 0-.6311.1647-.8507.494-.1646.3293-.1646.6312 0 .9605l9.6323 17.3436h-6.4215c-.247 0-.494.0823-.6861.2744s-.2744.4116-.2744.686v3.1285c0 .2744.0823.5214.2744.686.1921.1921.4116.2745.6861.2745h8.6443v2.5521h-8.6443c-.247 0-.494.0823-.6861.2744s-.2744.4116-.2744.6861v3.101c0 .2744.0823.5214.2744.686.1921.1921.4116.2744.6861.2744h8.6443v9.9067c0 .2745.0823.5214.2744.6861s.4117.2744.6861.2744h5.1592c.2469 0 .4939-.0823.686-.2744s.2744-.4116.2744-.6861v-9.9067h8.6993c.247 0 .4939-.0823.686-.2744s.2745-.4116.2745-.686v-3.101c0-.247-.0824-.494-.2745-.6861s-.4116-.2744-.686-.2744h-8.6993v-2.5521h8.6993c.247 0 .4939-.0824.686-.2745s.2745-.4116.2745-.686v-3.1285c0-.2469-.0824-.4939-.2745-.686s-.4116-.2744-.686-.2744h-6.449l9.3853-17.3711c.1921-.3293.1921-.6586 0-.933z"/></g></svg>

<svg width="150" height="150" viewBox="0 0 150 150" fill="none" xmlns="http://www.w3.org/2000/svg">
<path d="M128.046 21.9539C113.858 7.79363 95.0329 0 75 0C54.9671 0 36.1416 7.79363 21.9539 21.9539C7.79363 36.1416 0 54.9671 0 75C0 95.0329 7.79363 113.858 21.9539 128.046C36.1142 142.206 54.9671 150 75 150C95.0329 150 113.858 142.206 128.046 128.046C142.206 113.886 150 95.0329 150 75C150 54.9671 142.206 36.1416 128.046 21.9539Z" fill="#FFC700"/>
<path d="M26.0154 75.0001H12.2942C12.2942 43.2218 36.0593 16.4381 67.5631 12.6785L69.1822 26.2899C44.5939 29.2262 26.0154 50.1647 26.0154 75.0001Z" fill="black"/>
<path d="M139.983 75.494H121.871L121.817 73.3535C121.789 72.2009 121.707 71.0483 121.597 69.9506C119.429 48.5181 102.36 31.0099 81.0098 28.2657L79.0339 28.0461V9.87927L81.4489 10.1263C82.1075 10.1811 82.7112 10.2635 83.2875 10.3458C97.7222 12.1844 111.279 18.9627 121.487 29.4182C131.696 39.9012 138.145 53.6498 139.627 68.1669C139.791 69.8408 139.901 71.5423 139.929 73.2711L139.983 75.494ZM126.125 71.1032H135.483C135.428 70.2525 135.373 69.4292 135.291 68.5785C133.919 55.0494 127.909 42.2064 118.386 32.4643C109.001 22.887 96.6245 16.6301 83.4247 14.764V24.2042C105.9 27.9363 123.655 46.7069 125.96 69.5115C126.043 70.0604 126.07 70.5818 126.125 71.1032Z" fill="black"/>
<path d="M79.0339 139.654V121.487L80.9549 121.24C99.8353 118.853 115.669 104.885 120.362 86.4983L120.774 84.8518H139.215L138.694 87.4863C135.949 101.317 128.952 113.611 118.441 123.079C108.095 132.409 95.3073 138.035 81.4489 139.435L79.0339 139.654ZM83.4247 125.302V134.742C95.417 133.068 106.449 127.936 115.505 119.786C124.643 111.553 130.927 101.043 133.809 89.2151H124.149C121.432 98.4907 116.191 106.751 108.919 113.172C101.701 119.566 92.9198 123.738 83.4247 125.302Z" fill="black"/>
<path d="M69.7035 139.572L67.2612 139.27C52.6893 137.541 39.4895 131.12 29.0614 120.692C19.8956 111.526 13.7485 100.028 11.2787 87.4315L10.7573 84.8245H29.1986L29.6102 86.471C34.3029 104.638 49.3139 118.222 67.8375 121.076L69.7035 121.35V139.572ZM16.1635 89.2152C18.7705 99.9178 24.2864 109.687 32.1898 117.591C41.3281 126.729 52.7442 132.574 65.3402 134.577V125.082C56.1196 123.326 47.585 119.045 40.5872 112.678C33.5619 106.312 28.5125 98.2163 25.8506 89.2152H16.1635Z" fill="black"/>
<path d="M90.258 54.3359C90.0659 54.0066 89.7915 53.8419 89.4347 53.8419H83.6993C83.2876 53.8419 82.9858 54.034 82.8211 54.4182L77.0857 67.0417C76.9485 67.371 76.674 68.0022 76.2624 68.8803C75.8508 69.7585 75.5489 70.4446 75.3568 70.9111C74.6159 69.1822 74.067 67.9199 73.6828 67.1515L67.2339 54.3908C67.0418 54.034 66.7399 53.8419 66.3557 53.8419H60.5379C60.1812 53.8419 59.9068 54.0066 59.6872 54.3359C59.5226 54.6652 59.5226 54.9671 59.6872 55.2964L69.3195 72.64H62.898C62.651 72.64 62.404 72.7223 62.2119 72.9144C62.0198 73.1065 61.9375 73.326 61.9375 73.6004V76.7289C61.9375 77.0033 62.0198 77.2503 62.2119 77.4149C62.404 77.607 62.6235 77.6894 62.898 77.6894H71.5423V80.2415H62.898C62.651 80.2415 62.404 80.3238 62.2119 80.5159C62.0198 80.708 61.9375 80.9275 61.9375 81.202V84.303C61.9375 84.5774 62.0198 84.8244 62.2119 84.989C62.404 85.1811 62.6235 85.2634 62.898 85.2634H71.5423V95.1701C71.5423 95.4446 71.6246 95.6915 71.8167 95.8562C72.0088 96.0209 72.2284 96.1306 72.5028 96.1306H77.662C77.9089 96.1306 78.1559 96.0483 78.348 95.8562C78.5401 95.6641 78.6224 95.4446 78.6224 95.1701V85.2634H87.3217C87.5687 85.2634 87.8156 85.1811 88.0077 84.989C88.1998 84.7969 88.2822 84.5774 88.2822 84.303V81.202C88.2822 80.955 88.1998 80.708 88.0077 80.5159C87.8156 80.3238 87.5961 80.2415 87.3217 80.2415H78.6224V77.6894H87.3217C87.5687 77.6894 87.8156 77.607 88.0077 77.4149C88.1998 77.2228 88.2822 77.0033 88.2822 76.7289V73.6004C88.2822 73.3535 88.1998 73.1065 88.0077 72.9144C87.8156 72.7223 87.5961 72.64 87.3217 72.64H80.8727L90.258 55.2689C90.4501 54.9396 90.4501 54.6103 90.258 54.3359Z" fill="black"/>
</svg>
